dist/svgs/geomicons-open/icons/camera.svg

<svg xmlns="http://www.w3.org/2000/svg" viewBox="0 0 32 32"><path d="M0 6h8l2-4h12l2 4h8v22H0zm9 11a7 7 0 0014 0 7 7 0 00-14 0"/></svg>

<svg id="camera" xmlns="http://www.w3.org/2000/svg" viewBox="0 0 32 32" width="32" height="32" fill="currentcolor">
  <path d="M0 6 L8 6 L10 2 L22 2 L24 6 L32 6 L32 28 L0 28 z M9 17 A7 7 0 0 0 23 17 A7 7 0 0 0 9 17"></path>
</svg>
